X: 13664
T: Follow Me Up
R: reel
M: 4/4
K: Adorian
ABAG EFG2|AGAB cded|cBcG EGAa|1 gedB cAAG:|2 gedB cAA2||
ecc2 ecgc|BGG2 Bcdf|ecc2 ecea|gedB cAA2|
agef gedB|cBcG EGG2|AGAB ceaf|gedB cAA2:|

